X: 12265
T: Fairly Shot Of Her
R: jig
M: 6/8
K: Eminor
E/F/GE E/F/GE|E2B BGE|E/F/GE E/F/GE|D2A AFD|
E/F/GE E/F/GE|E2B BGB|cBA dcB|D2A AFD:|
B/^c/dE B2E|B/^c/dE BGE|B/^c/dE B2E|B/^c/dB AFD|
B/^c/dE B2E|B/^c/dE BGB|cBA dcB|D2A AFD:|

